packages/appstore/src/assets/svgs/wallet/paysafe-card-dark.svg

<svg width="128" height="80" viewBox="0 0 128 80" fill="none" xmlns="http://www.w3.org/2000/svg">
<path d="M25.7336 35.7429C27.379 35.7429 28.2189 36.6629 28.2498 38.4518V43.9659C28.2335 44.5931 27.9644 45.1876 27.5026 45.6112C27.0554 46.0766 26.4409 46.3457 25.7936 46.3566H22.2557V50.3253H19.6377V38.5554C19.6068 37.8246 19.8231 37.1028 20.2522 36.5101C20.4813 36.2811 20.7521 36.0975 21.0485 35.9684C21.3467 35.8229 21.6703 35.7466 22.0012 35.7429H25.7336ZM43.6907 35.7429V42.8205C43.6907 43.3914 43.9161 43.6677 44.387 43.6677H46.2378C46.445 43.6713 46.6468 43.595 46.8014 43.4532C46.9468 43.3496 47.0323 43.1823 47.0359 43.0041V35.7429H49.623V47.4328C49.6412 48.1691 49.4048 48.8909 48.9576 49.4763C48.5231 50.009 47.8668 50.309 47.1777 50.2853H41.0436V47.6456H46.2705C46.4687 47.6346 46.6559 47.5547 46.8014 47.4219C46.9359 47.3183 47.0141 47.1601 47.0159 46.9929V46.3566H43.6725C43.3234 46.3693 42.9762 46.3093 42.6489 46.1839C42.3362 46.0621 42.0544 45.8748 41.8217 45.6312C41.5744 45.3767 41.3835 45.0749 41.2581 44.7422C41.1308 44.4149 41.069 44.0695 41.0763 43.7186V35.7448H43.6943L43.6907 35.7429ZM96.0418 35.7539V36.3774H92.093C91.5167 36.3447 90.944 36.4956 90.4567 36.8065C90.015 37.2137 89.7913 37.8046 89.855 38.4009V43.4132C89.855 43.7586 89.9059 44.104 90.0077 44.4349C90.1277 44.7603 90.3277 45.0476 90.5895 45.2748C90.8313 45.4785 91.1203 45.6203 91.4294 45.6821C91.7348 45.7457 92.0476 45.7766 92.3603 45.7748H96.0928V46.4093H92.2984V46.3584C91.9348 46.3584 91.5712 46.322 91.2149 46.2548C90.8367 46.182 90.4858 46.0111 90.1913 45.7639C89.8586 45.493 89.6023 45.1421 89.4459 44.7422C89.2968 44.324 89.2241 43.8859 89.2296 43.4441V38.4318C89.2205 38.0864 89.2605 37.741 89.3532 37.4101C89.4623 37.0665 89.6513 36.7556 89.9059 36.5011C90.1859 36.2065 90.5386 35.992 90.9276 35.8757C91.2931 35.7902 91.6676 35.7484 92.0421 35.7539H96.0418ZM36.2966 35.7429C38.0292 35.7429 38.9092 36.5811 38.9364 38.2591V43.8732C38.9382 44.5185 38.7055 45.1458 38.2819 45.6312C37.8456 46.1111 37.222 46.3766 36.5729 46.3584H32.995C31.246 46.3584 30.3661 45.5403 30.3352 43.9641V41.7988C30.2515 41.1043 30.4915 40.4098 30.986 39.9171C31.4824 39.4226 32.1769 39.1863 32.8714 39.2735H36.3893V39.0172L36.3384 39.0481C36.3384 38.6391 36.1239 38.4554 35.6421 38.4663H30.377V35.7411H36.2966V35.7429ZM59.6769 35.7229V38.4136H55.0608C54.5191 38.4136 54.2536 38.5772 54.2536 38.9045V39.1372C54.2536 39.4863 54.53 39.6499 55.0808 39.6499H57.3825C57.9825 39.6626 58.5533 39.9226 58.957 40.3644C59.3897 40.8043 59.6333 41.3952 59.6333 42.0115V43.9659C59.6024 44.6022 59.3351 45.2021 58.8861 45.653C58.6861 45.8893 58.4388 46.0802 58.1588 46.2148C57.8298 46.3202 57.4843 46.3675 57.1371 46.3584H51.6556V43.6677H56.3099C56.7389 43.6677 56.9535 43.4859 56.9734 43.1587V42.9223C56.9716 42.8405 56.9498 42.7587 56.9116 42.686C56.7989 42.4824 56.6771 42.3806 56.5244 42.3806H54.2118C53.5573 42.3806 52.9264 42.1278 52.4537 41.6733C52.0065 41.297 51.7411 40.7461 51.7265 40.1607V38.1155C51.7265 36.5483 52.5756 35.7502 54.2736 35.7229H59.6733H59.6769ZM67.4582 35.7429C69.1854 35.7429 70.0653 36.612 70.0853 38.2591V43.8732C70.0981 44.5185 69.8672 45.1458 69.4417 45.6312C69.0054 46.1111 68.3818 46.3766 67.7328 46.3584H64.1439C62.4058 46.3584 61.5168 45.5403 61.495 43.9641V41.7988C61.4132 41.1098 61.6495 40.4225 62.1386 39.9299C62.6258 39.439 63.313 39.1954 64.0021 39.2735H67.4782V39.0172L67.4982 39.0481C67.4982 38.6391 67.2837 38.4554 66.7928 38.4663H61.5368V35.7411H67.4582V35.7429ZM76.6831 31.796V34.394H75.6595C75.1068 34.394 74.8305 34.6685 74.8214 35.1812V35.7429H76.6813V38.4336H74.8305V46.3584H72.1834V34.2285C72.1779 33.5559 72.4743 32.9141 72.9906 32.4814C73.5669 32.0124 74.2942 31.7687 75.0359 31.796H76.6831ZM80.7919 35.7429H84.3117C85.0026 35.6775 85.6898 35.932 86.1716 36.4338C86.6534 36.9356 86.8806 37.6301 86.7861 38.3191V40.4371L80.8755 42.7587V42.9223C80.861 43.1096 80.9246 43.2932 81.0483 43.4332C81.1028 43.5732 81.2373 43.6659 81.3864 43.6695H86.7552V46.3584H81.0483C80.6374 46.3729 80.2265 46.322 79.832 46.2039C79.5175 46.1039 79.232 45.933 78.9938 45.7039C78.732 45.4639 78.5321 45.1658 78.4121 44.8349C78.2884 44.4349 78.2321 44.0168 78.2484 43.5968V38.2282C78.1757 37.5373 78.423 36.8538 78.9211 36.3702C79.4156 35.8866 80.1065 35.6557 80.7937 35.7429H80.7919ZM103.792 35.6811C104.241 35.6757 104.69 35.7102 105.132 35.7829C105.338 35.8229 105.532 35.9029 105.705 36.0193C105.907 36.1465 106.081 36.3138 106.218 36.5101C106.694 37.121 106.945 37.8809 106.923 38.6572V43.4641C106.923 43.8059 106.894 44.1477 106.841 44.4858C106.756 44.8658 106.576 45.2167 106.319 45.5094C105.796 46.0802 105.047 46.3911 104.274 46.3584H101.203C100.472 46.3875 99.7598 46.1257 99.2198 45.6312C98.7489 45.1767 98.4726 44.5622 98.4417 43.9168V42.0315C98.3453 41.2788 98.598 40.5207 99.1271 39.9753C99.6562 39.4299 100.407 39.1554 101.163 39.2299H106.358V38.5245C106.37 37.9718 106.194 37.4301 105.858 36.9901C105.672 36.7283 105.412 36.5283 105.11 36.4174C104.776 36.3374 104.432 36.2993 104.087 36.3047H98.4126V35.6811H103.79H103.792ZM113.592 35.6811V36.3047H112.792C111.341 36.3047 110.625 37.1228 110.655 38.6881V46.3584H110.021V38.6881C110.021 36.6429 110.952 35.6811 112.893 35.6811H113.59H113.592ZM123.971 32.2142V43.3932H124C123.94 45.4385 122.876 46.3984 120.789 46.3566H118.468C118.026 46.362 117.584 46.3202 117.15 46.2348C116.708 46.1039 116.311 45.853 116.004 45.5076C115.75 45.2167 115.571 44.864 115.482 44.4858C115.377 44.104 115.337 43.7059 115.359 43.3114V38.7372C115.359 36.692 116.382 35.6702 118.428 35.6702H123.346V32.2142H123.971ZM123.376 36.3047H118.428C118.082 36.2974 117.737 36.3393 117.404 36.4283C117.07 36.5156 116.768 36.7047 116.546 36.9701C116.311 37.1901 116.142 37.4701 116.055 37.7773C115.951 38.1082 115.91 38.4554 115.931 38.8009V43.6895C115.855 44.3295 116.128 44.9621 116.648 45.3439C116.888 45.4894 117.15 45.5948 117.424 45.653C117.742 45.7384 118.068 45.7803 118.397 45.7748H120.555C121.258 45.8021 121.955 45.6057 122.538 45.2112C123.084 44.7676 123.378 44.084 123.326 43.3823L123.376 36.3047ZM106.298 39.8535H101.052C100.503 39.8426 99.9725 40.0535 99.5798 40.4353C99.2489 40.8025 99.0544 41.2679 99.0271 41.757V43.6059C99.0235 43.8913 99.058 44.1768 99.1289 44.4531C99.2053 44.7403 99.378 44.9894 99.6198 45.1603C100.038 45.5239 100.571 45.7239 101.123 45.7221H104.305C105.632 45.7221 106.35 45.0058 106.35 43.615L106.298 39.8517V39.8535ZM25.0282 38.4318H22.9829C22.7757 38.4263 22.5757 38.5082 22.4357 38.6591C22.3302 38.7718 22.2648 38.9154 22.2466 39.0663V42.8805C22.2248 43.1005 22.3066 43.3168 22.4648 43.4714C22.6248 43.6241 22.8466 43.6968 23.0647 43.6677H24.9355C25.1228 43.6713 25.3009 43.5932 25.4264 43.4532C25.5537 43.3477 25.6264 43.1896 25.6209 43.0241V39.0772C25.6209 38.6591 25.4064 38.4427 25.0282 38.4318ZM33.0641 41.8988C32.955 42.0697 32.9095 42.2715 32.9332 42.4715L32.9532 43.1369C32.9532 43.2859 33.0295 43.4277 33.1586 43.5041C33.2859 43.6186 33.4568 43.6768 33.6277 43.6677H35.673C36.1239 43.6677 36.3584 43.495 36.3693 43.1369V42.3915C36.3693 41.9806 36.133 41.777 35.653 41.777H33.6077C33.4186 41.7588 33.2295 41.8024 33.0659 41.8988H33.0641ZM64.2257 41.8988C64.113 42.0679 64.0621 42.2697 64.0839 42.4715L64.1021 43.1369C64.1021 43.2896 64.1857 43.4296 64.3184 43.5041C64.4475 43.6186 64.6166 43.6768 64.7893 43.6677H66.8346C67.2837 43.6677 67.52 43.495 67.5291 43.1369V42.3915C67.5291 41.9806 67.2928 41.777 66.8128 41.777H64.7693C64.5802 41.7588 64.3912 41.8024 64.2275 41.8988H64.2257ZM83.4954 38.4318H81.6737C81.4682 38.4209 81.2664 38.4918 81.1119 38.6263C80.9392 38.73 80.8337 38.9172 80.8355 39.1172V40.1607L84.1081 38.9645V38.9027C84.1135 38.7681 84.0535 38.6372 83.9444 38.5554C83.8099 38.47 83.6535 38.4282 83.4954 38.4318Z" fill="#008AC9"/>
<path d="M12.736 35.741C14.3814 35.761 15.2504 36.6609 15.2504 38.4499V43.564C15.2195 45.353 14.3814 46.2729 12.7342 46.2729H6.3546C6.02735 46.2693 5.70374 46.1966 5.40376 46.0602C5.11287 45.9348 4.84743 45.7621 4.61653 45.5475C4.19111 44.953 3.97658 44.2331 4.00203 43.5022V38.5135C3.97839 37.7845 4.19474 37.0663 4.61472 36.4682C4.84743 36.2573 5.11287 36.0882 5.40194 35.9682C5.69828 35.8228 6.02372 35.7464 6.35279 35.7428L12.736 35.741ZM9.53622 30.0014C12.3324 29.9378 14.6995 32.0413 14.9668 34.8192C14.994 35.161 14.994 35.5028 14.9668 35.8428C14.5595 35.4737 14.0559 35.2283 13.5123 35.1374C13.1342 33.2957 11.5106 31.9722 9.62712 31.9722C7.74542 31.9722 6.12189 33.2939 5.74192 35.1374C5.53102 35.1828 5.32376 35.2519 5.12741 35.3428L5.17832 35.3119C4.87652 35.4446 4.5929 35.621 4.34201 35.8337V35.0665C4.47473 32.2758 6.74367 30.0669 9.53622 30.0014Z" fill="#E3001B"/>
</svg>

<svg width="128" height="80" fill="none" xmlns="http://www.w3.org/2000/svg"><path d="M25.734 35.743c1.645 0 2.485.92 2.516 2.709v5.514a2.314 2.314 0 0 1-.747 1.645 2.427 2.427 0 0 1-1.71.746h-3.537v3.968h-2.618v-11.77c-.031-.73.185-1.452.614-2.045.23-.229.5-.413.797-.542.298-.145.621-.221.952-.225h3.733zm17.957 0v7.078c0 .57.225.847.696.847h1.85a.813.813 0 0 0 .564-.215.564.564 0 0 0 .235-.449v-7.261h2.587v11.69a3.238 3.238 0 0 1-.665 2.043 2.197 2.197 0 0 1-1.78.81h-6.134v-2.64h5.227a.859.859 0 0 0 .53-.224.549.549 0 0 0 .215-.43v-.635h-3.343a2.596 2.596 0 0 1-1.024-.173 2.291 2.291 0 0 1-.827-.553 2.577 2.577 0 0 1-.564-.889 2.662 2.662 0 0 1-.182-1.023v-7.974h2.618l-.003-.002zm52.35.01v.624h-3.948a2.754 2.754 0 0 0-1.636.43 1.895 1.895 0 0 0-.602 1.594v5.012c0 .346.05.691.153 1.022.12.325.32.613.582.84.241.203.53.345.84.407.305.064.618.095.93.093h3.733v.634h-3.795v-.05c-.363 0-.727-.037-1.083-.104a2.257 2.257 0 0 1-1.024-.491 2.482 2.482 0 0 1-.745-1.022 3.72 3.72 0 0 1-.216-1.298v-5.012c-.01-.346.03-.691.123-1.022.11-.343.298-.654.553-.909.28-.294.633-.509 1.022-.625a4.6 4.6 0 0 1 1.114-.122h4zm-59.744-.01c1.732 0 2.612.838 2.64 2.516v5.614a2.666 2.666 0 0 1-.655 1.758c-.436.48-1.06.746-1.71.727h-3.577c-1.749 0-2.629-.818-2.66-2.394V41.8a2.268 2.268 0 0 1 2.536-2.525h3.518v-.257l-.05.031c0-.409-.215-.593-.697-.582h-5.265v-2.725h5.92v.002zm23.38-.02v2.69H55.06c-.542 0-.807.164-.807.492v.232c0 .35.276.513.827.513h2.301a2.2 2.2 0 0 1 1.575.714c.433.44.676 1.031.676 1.648v1.954a2.567 2.567 0 0 1-.747 1.687 2.2 2.2 0 0 1-.727.562 3.083 3.083 0 0 1-1.022.143h-5.481v-2.69h4.654c.429 0 .643-.182.663-.51v-.236a.537.537 0 0 0-.061-.236c-.113-.204-.235-.305-.388-.305h-2.312a2.537 2.537 0 0 1-1.758-.708 2.044 2.044 0 0 1-.727-1.512v-2.046c0-1.567.849-2.365 2.547-2.392H59.677zm7.781.02c1.727 0 2.607.869 2.627 2.516v5.614a2.591 2.591 0 0 1-.643 1.758c-.437.48-1.06.746-1.71.727h-3.588c-1.738 0-2.627-.818-2.649-2.394V41.8a2.27 2.27 0 0 1 2.507-2.526h3.476v-.256l.02.031c0-.409-.214-.593-.705-.582h-5.256v-2.725h5.921v.002zm9.225-3.947v2.598H75.66c-.552 0-.829.275-.838.787v.562h1.86v2.69h-1.85v7.925h-2.648v-12.13a2.257 2.257 0 0 1 .808-1.747 3.063 3.063 0 0 1 2.045-.685h1.647zm4.109 3.947h3.52a2.277 2.277 0 0 1 2.474 2.576v2.118l-5.91 2.322v.163c-.015.188.049.371.172.511.055.14.19.233.338.236h5.37v2.69h-5.708a3.775 3.775 0 0 1-1.216-.155c-.314-.1-.6-.271-.838-.5a2.196 2.196 0 0 1-.582-.87c-.124-.4-.18-.817-.164-1.237v-5.369a2.27 2.27 0 0 1 2.545-2.485h-.001zm23-.062c.449-.005.898.03 1.34.102.206.04.4.12.573.236.202.128.376.295.513.491.476.611.727 1.37.705 2.147v4.807c0 .342-.029.684-.082 1.022-.085.38-.265.73-.522 1.023a2.624 2.624 0 0 1-2.045.85h-3.071a2.773 2.773 0 0 1-1.983-.728 2.554 2.554 0 0 1-.778-1.714V42.03a2.5 2.5 0 0 1 2.721-2.801h5.195v-.705a2.442 2.442 0 0 0-.5-1.535 1.59 1.59 0 0 0-.748-.573 4.117 4.117 0 0 0-1.023-.112h-5.674v-.624h5.379zm9.8 0v.624h-.8c-1.451 0-2.167.818-2.137 2.383v7.67h-.634v-7.67c0-2.045.931-3.007 2.872-3.007h.699zm10.379-3.467v11.18H124c-.06 2.044-1.124 3.004-3.211 2.963h-2.321a6.424 6.424 0 0 1-1.318-.122 2.47 2.47 0 0 1-1.146-.727 2.386 2.386 0 0 1-.522-1.022 3.666 3.666 0 0 1-.123-1.175v-4.574c0-2.045 1.023-3.067 3.069-3.067h4.918v-3.456h.625zm-.595 4.09h-4.948a3.668 3.668 0 0 0-1.024.124 1.67 1.67 0 0 0-.858.542c-.235.22-.404.5-.491.807a2.84 2.84 0 0 0-.124 1.024v4.889a1.79 1.79 0 0 0 .717 1.654c.24.145.502.25.776.309.318.085.644.127.973.122h2.158c.703.027 1.4-.17 1.983-.564.546-.443.84-1.127.788-1.829l.05-7.077zm-17.078 3.55h-5.246c-.549-.011-1.08.2-1.472.581-.331.367-.526.833-.553 1.322v1.849c-.004.285.031.57.102.847.076.287.249.536.49.707.419.364.952.564 1.504.562h3.182c1.327 0 2.045-.716 2.045-2.107l-.052-3.763v.002zm-81.27-1.422h-2.045a.72.72 0 0 0-.736.634v3.814a.727.727 0 0 0 .818.788h1.87a.641.641 0 0 0 .491-.215.535.535 0 0 0 .195-.429v-3.947c0-.418-.215-.634-.593-.645zm8.036 3.467a.872.872 0 0 0-.13.572l.02.666c0 .149.075.29.205.367a.652.652 0 0 0 .469.164h2.045c.45 0 .685-.173.696-.531v-.745c0-.411-.236-.615-.716-.615h-2.045a.898.898 0 0 0-.542.122h-.002zm31.162 0a.864.864 0 0 0-.142.572l.018.666c0 .153.084.293.216.367.13.115.299.173.471.164h2.046c.449 0 .685-.173.694-.531v-.745c0-.411-.236-.615-.716-.615h-2.044a.898.898 0 0 0-.541.122h-.002zm19.27-3.467h-1.822a.794.794 0 0 0-.562.194.568.568 0 0 0-.276.491v1.044l3.272-1.197v-.061a.413.413 0 0 0-.164-.348.802.802 0 0 0-.449-.123z" fill="#008AC9"/><path d="M12.736 35.741c1.645.02 2.514.92 2.514 2.709v5.114c-.03 1.789-.869 2.709-2.516 2.709h-6.38a2.36 2.36 0 0 1-.95-.213 2.757 2.757 0 0 1-.787-.513 3.316 3.316 0 0 1-.615-2.045v-4.989a3.372 3.372 0 0 1 .613-2.045c.232-.21.498-.38.787-.5.296-.145.622-.222.95-.225l6.384-.002zm-3.2-5.74a5.332 5.332 0 0 1 5.43 4.818 6.43 6.43 0 0 1 0 1.024 2.87 2.87 0 0 0-1.454-.706 3.966 3.966 0 0 0-7.77 0c-.211.046-.418.115-.615.206l.051-.031c-.301.133-.585.309-.836.522v-.768c.133-2.79 2.402-5 5.194-5.065z" fill="#E3001B"/></svg>
